src/main/content/img/404_planet_left.svg

<?xml version="1.0" encoding="UTF-8"?>
<svg width="59px" height="58px" viewBox="0 0 59 58" version="1.1" xmlns="http://www.w3.org/2000/svg" xmlns:xlink="http://www.w3.org/1999/xlink">
    <!-- Generator: Sketch 50.2 (55047) - http://www.bohemiancoding.com/sketch -->
    <title>Planet 1</title>
    <desc>Created with Sketch.</desc>
    <defs></defs>
    <g id="Page-1" stroke="none" stroke-width="1" fill="none" fill-rule="evenodd">
        <g id="Desktop-HD-Copy-2" transform="translate(-194.000000, -435.000000)">
            <g id="Planet-1" transform="translate(223.617145, 463.347301) scale(-1, -1) rotate(56.000000) translate(-223.617145, -463.347301) translate(197.117145, 435.847301)">
                <ellipse id="Oval-3" stroke="#3F4667" stroke-width="4" fill="#5C6B8F" cx="26.2984923" cy="27.2302103" rx="26.2984923" ry="27.2302103"></ellipse>
                <path d="M41.5960896,5.00912991 C42.7242267,6.02583745 41.7068044,8.47102625 38.5438229,12.3446963 C33.7993505,18.1552014 27.7123164,21.8411372 26.4129531,23.1309672 C25.1135899,24.4207973 23.0243733,26.6510007 25.4911342,30.2173898 C27.957895,33.7837789 32.5413961,34.1666459 37.2965274,33.7837789 C39.4335474,33.6117133 42.8065321,32.9674467 46.6977418,31.1920596 C47.9517879,30.6198937 49.9182022,29.4644848 52.5969846,27.7258329" id="Path-11" stroke="#3F4667" stroke-width="2"></path>
                <path d="M35.9021168,22.4771694 C35.4533285,22.9324154 34.0600849,24.7382085 34.4521348,26.5916315 C34.8441846,28.4450545 36.6169478,28.7329813 37.5125083,28.7329813 C38.4080689,28.7329813 40.251194,27.8597141 41.4604559,27.0252979 C42.2666305,26.4690205 43.0213055,25.6913413 43.724481,24.6922601 C44.8048998,22.9375121 45.422304,21.4398849 45.5766938,20.1993787 C45.8082785,18.3386194 45.7575524,17.4099509 44.4866751,16.4053976 C43.2157978,15.4008443 40.1944826,17.181026 39.1340989,18.3830593 C38.0737151,19.5850927 36.3509051,22.0219233 35.9021168,22.4771694 Z" id="Path-11" stroke="#404768" stroke-width="2"></path>
                <path d="M3.72687205,12.9238305 C10.0561536,13.610362 13.8964098,14.5166704 15.2476406,15.6427556 C17.2744869,17.3318833 17.5354303,19.9498623 15.2476406,21.9346783 C12.9598509,23.9194943 9.26081128,22.33062 6.87543835,24.6667791 C4.49006542,27.0029383 4.64530936,28.3326998 4.97609971,29.8070425 C5.30689005,31.2813852 7.04244618,33.0398902 10.2939665,33.6246362 C13.5454868,34.2093822 17.926634,33.6220824 19.6002604,34.8229764 C21.2738867,36.0238703 21.5140351,36.8753549 21.5140351,38.9516071 C21.5140351,41.0278593 20.3086246,42.5490113 18.9439474,44.7987414 C17.5792702,47.0484715 17.6518589,50.2723948 21.5140351,49.9264172 C25.3762112,49.5804396 25.6066413,46.8649956 31.9364298,43.8986379 C36.1562887,41.9210661 41.6004802,41.0929747 48.2690041,41.4143635" id="Path-12" stroke="#3F4667" stroke-width="2"></path>
            </g>
        </g>
    </g>
</svg>

<svg width="59" height="58" xmlns="http://www.w3.org/2000/svg"><g transform="rotate(-124 28.284 27.095)" fill="none" fill-rule="evenodd"><ellipse stroke="#3F4667" stroke-width="4" fill="#5C6B8F" cx="26.298" cy="27.23" rx="26.298" ry="27.23"/><path d="M41.596 5.01c1.128 1.016.11 3.461-3.052 7.335-4.745 5.81-10.832 9.496-12.131 10.786-1.3 1.29-3.389 3.52-.922 7.086 2.467 3.567 7.05 3.95 11.806 3.567 2.137-.172 5.51-.817 9.4-2.592 1.255-.572 3.221-1.728 5.9-3.466" stroke="#3F4667" stroke-width="2"/><path d="M35.902 22.477c-.449.455-1.842 2.261-1.45 4.115.392 1.853 2.165 2.141 3.06 2.141.896 0 2.74-.873 3.948-1.708.807-.556 1.561-1.334 2.264-2.333 1.08-1.754 1.698-3.252 1.853-4.493.231-1.86.18-2.789-1.09-3.794-1.271-1.004-4.293.776-5.353 1.978-1.06 1.202-2.783 3.639-3.232 4.094z" stroke="#404768" stroke-width="2"/><path d="M3.727 12.924c6.33.686 10.17 1.593 11.52 2.719 2.027 1.689 2.288 4.307 0 6.292-2.287 1.984-5.986.396-8.372 2.732-2.385 2.336-2.23 3.666-1.899 5.14.33 1.474 2.066 3.233 5.318 3.818 3.251.584 7.633-.003 9.306 1.198 1.674 1.2 1.914 2.052 1.914 4.129 0 2.076-1.205 3.597-2.57 5.847-1.365 2.25-1.292 5.473 2.57 5.127 3.862-.346 4.093-3.061 10.422-6.027 4.22-1.978 9.664-2.806 16.333-2.485" stroke="#3F4667" stroke-width="2"/></g></svg>
